;FLAVOR:UltiGCode
;TIME:1397
;MATERIAL:1534
;MATERIAL2:0
;NOZZLE_DIAMETER:0.4
;MINX:89.628
;MINY:89.643
;MINZ:0.27
;MAXX:133.364
;MAXY:133.366
;MAXZ:11.22
;Generated with Cura_SteamEngine 4.11.0
M82 ;absolute extrusion mode
G0 F3000 Y50 ;avoid prime blob
G92 E0
G92 E0
G10
;LAYER_COUNT:74
;LAYER:0
M107
G0 F4500 X92.563 Y92.132 Z0.27
;TYPE:SKIRT
G11
G1 F1800 X93.145 Y91.639 E0.07208
G1 X93.782 Y91.166 E0.14706
G1 X94.818 Y90.583 E0.2594
G1 X95.137 Y90.434 E0.29267
G1 X95.872 Y90.135 E0.36765
G1 X96.99 Y89.834 E0.47706
G1 X97.335 Y89.768 E0.51026
G1 X98.121 Y89.659 E0.58525
G1 X99.308 Y89.643 E0.69743
G1 X99.659 Y89.665 E0.73066
G1 X100.447 Y89.755 E0.80561
G1 X101.222 Y89.923 E0.88055
G1 X101.96 Y90.154 E0.95363
G1 X102.7 Y90.44 E1.0286
G1 X103.095 Y90.652 E1.07096
G1 X103.537 Y90.434 E1.11754
G1 X104.272 Y90.135 E1.19252
G1 X105.39 Y89.834 E1.30193
G1 X105.735 Y89.768 E1.33513
G1 X106.521 Y89.659 E1.41012
G1 X107.708 Y89.643 E1.5223
G1 X108.059 Y89.665 E1.55553
G1 X108.847 Y89.755 E1.63048
G1 X109.622 Y89.923 E1.70542
G1 X110.36 Y90.154 E1.7785
G1 X111.1 Y90.44 E1.85347
G1 X111.495 Y90.652 E1.89583
G1 X111.937 Y90.434 E1.94241
G1 X112.672 Y90.135 E2.01739
G1 X113.79 Y89.834 E2.1268
G1 X114.135 Y89.768 E2.16
G1 X114.921 Y89.659 E2.23499
G1 X116.108 Y89.643 E2.34717
G1 X116.459 Y89.665 E2.3804
G1 X117.247 Y89.755 E2.45535
G1 X118.022 Y89.923 E2.53029
G1 X118.76 Y90.154 E2.60337
G1 X119.5 Y90.44 E2.67834
G1 X119.895 Y90.652 E2.7207
G1 X120.337 Y90.434 E2.76728
G1 X121.072 Y90.135 E2.84226
G1 X122.19 Y89.834 E2.95167
G1 X122.535 Y89.768 E2.98487
G1 X123.321 Y89.659 E3.05986
G1 X124.508 Y89.643 E3.17204
G1 X124.859 Y89.665 E3.20527
G1 X125.647 Y89.755 E3.28022
G1 X126.422 Y89.923 E3.35516
G1 X127.16 Y90.154 E3.42824
G1 X127.9 Y90.44 E3.50321
G1 X128.929 Y90.993 E3.6136
G1 X129.224 Y91.181 E3.64666
G1 X129.871 Y91.641 E3.72168
G1 X130.716 Y92.414 E3.8299
G1 X130.956 Y92.668 E3.86293
G1 X131.471 Y93.271 E3.93787
G1 X131.923 Y93.923 E4.01284
G1 X132.297 Y94.579 E4.0842
G1 X132.644 Y95.292 E4.15913
G1 X132.919 Y96.036 E4.23409
G1 X133.121 Y96.785 E4.3074
G1 X133.278 Y97.562 E4.38231
G1 X133.364 Y98.726 E4.49261
G1 X133.364 Y99.074 E4.52549
G1 X133.324 Y99.866 E4.60043
G1 X133.124 Y101.005 E4.70971
G1 X133.038 Y101.345 E4.74285
G1 X132.804 Y102.104 E4.81791
G1 X132.496 Y102.835 E4.89287
G1 X132.357 Y103.103 E4.9214
G1 X132.644 Y103.692 E4.98332
G1 X132.919 Y104.436 E5.05828
G1 X133.121 Y105.185 E5.13159
G1 X133.278 Y105.962 E5.2065
G1 X133.364 Y107.126 E5.31679
G1 X133.364 Y107.474 E5.34968
G1 X133.324 Y108.266 E5.42462
G1 X133.124 Y109.405 E5.5339
G1 X133.038 Y109.745 E5.56704
G1 X132.804 Y110.504 E5.6421
G1 X132.496 Y111.235 E5.71706
G1 X132.357 Y111.503 E5.74559
G1 X132.644 Y112.092 E5.80751
G1 X132.919 Y112.836 E5.88246
G1 X133.12 Y113.578 E5.95511
G1 X133.277 Y114.356 E6.03011
G1 X133.364 Y115.525 E6.14089
G1 X133.364 Y115.874 E6.17387
G1 X133.324 Y116.666 E6.24881
G1 X133.124 Y117.805 E6.35809
G1 X133.038 Y118.145 E6.39123
G1 X132.804 Y118.904 E6.46629
G1 X132.496 Y119.635 E6.54125
G1 X132.357 Y119.903 E6.56978
G1 X132.644 Y120.492 E6.6317
G1 X132.919 Y121.236 E6.70665
G1 X133.12 Y121.978 E6.7793
G1 X133.277 Y122.756 E6.8543
G1 X133.364 Y123.925 E6.96508
G1 X133.364 Y124.274 E6.99806
G1 X133.324 Y125.066 E7.073
G1 X133.124 Y126.205 E7.18228
G1 X133.038 Y126.545 E7.21542
G1 X132.804 Y127.304 E7.29048
G1 X132.496 Y128.035 E7.36544
G1 X132.127 Y128.728 E7.43964
G1 X131.71 Y129.402 E7.51453
G1 X131.226 Y130.031 E7.58953
G1 X130.701 Y130.602 E7.66284
G1 X130.126 Y131.149 E7.73783
G1 X129.201 Y131.834 E7.8466
G1 X128.904 Y132.022 E7.87982
G1 X128.213 Y132.412 E7.9548
G1 X127.121 Y132.859 E8.06631
G1 X126.791 Y132.966 E8.09909
G1 X126.025 Y133.172 E8.17405
G1 X124.855 Y133.335 E8.28568
G1 X124.504 Y133.357 E8.31892
G1 X123.71 Y133.366 E8.39396
G1 X122.92 Y133.296 E8.4689
G1 X122.165 Y133.161 E8.54138
G1 X121.394 Y132.97 E8.61644
G1 X120.315 Y132.556 E8.72566
G1 X119.907 Y132.359 E8.76847
G1 X119.813 Y132.412 E8.77867
G1 X118.721 Y132.859 E8.89017
G1 X118.391 Y132.966 E8.92296
G1 X117.625 Y133.172 E8.99792
G1 X116.455 Y133.335 E9.10955
G1 X116.104 Y133.357 E9.14278
G1 X115.31 Y133.366 E9.21782
G1 X114.52 Y133.296 E9.29277
G1 X113.765 Y133.161 E9.36525
G1 X112.994 Y132.97 E9.44031
G1 X111.915 Y132.556 E9.54952
G1 X111.507 Y132.359 E9.59234
G1 X111.413 Y132.412 E9.60254
G1 X110.321 Y132.859 E9.71404
G1 X109.991 Y132.966 E9.74683
G1 X109.225 Y133.172 E9.82178
G1 X108.055 Y133.335 E9.93342
G1 X107.704 Y133.357 E9.96665
G1 X106.91 Y133.366 E10.04169
G1 X106.12 Y133.296 E10.11664
G1 X105.365 Y133.161 E10.18912
G1 X104.594 Y132.97 E10.26418
G1 X103.515 Y132.556 E10.37339
G1 X103.107 Y132.359 E10.41621
G1 X103.013 Y132.412 E10.4264
G1 X101.921 Y132.859 E10.53791
G1 X101.591 Y132.966 E10.57069
G1 X100.825 Y133.172 E10.64565
G1 X99.655 Y133.335 E10.75728
G1 X99.304 Y133.357 E10.79052
G1 X98.51 Y133.366 E10.86556
G1 X97.72 Y133.296 E10.9405
G1 X96.965 Y133.161 E11.01298
G1 X96.194 Y132.97 E11.08805
G1 X95.115 Y132.556 E11.19726
G1 X94.796 Y132.406 E11.23057
G1 X94.096 Y132.033 E11.30553
G1 X93.437 Y131.591 E11.38051
G1 X92.852 Y131.12 E11.45149
G1 X92.268 Y130.583 E11.52646
G1 X91.503 Y129.681 E11.63823
G1 X91.297 Y129.397 E11.67138
G1 X90.864 Y128.732 E11.74637
G1 X90.501 Y128.027 E11.82131
G1 X90.213 Y127.323 E11.89318
G1 X89.961 Y126.571 E11.96813
G1 X89.735 Y125.459 E12.07537
G1 X89.69 Y125.111 E12.10853
G1 X89.628 Y124.32 E12.1835
G1 X89.646 Y123.527 E12.25846
G1 X89.734 Y122.747 E12.33264
G1 X89.875 Y121.966 E12.40764
G1 X90.21 Y120.885 E12.51458
G1 X90.337 Y120.56 E12.54756
G1 X90.637 Y119.893 E12.61667
G1 X90.337 Y119.24 E12.68458
G1 X90.21 Y118.915 E12.71756
G1 X89.959 Y118.163 E12.79247
G1 X89.735 Y117.059 E12.89893
G1 X89.69 Y116.711 E12.93209
G1 X89.628 Y115.92 E13.00707
G1 X89.646 Y115.127 E13.08202
G1 X89.734 Y114.347 E13.1562
G1 X89.875 Y113.566 E13.2312
G1 X90.21 Y112.485 E13.33815
G1 X90.337 Y112.16 E13.37112
G1 X90.638 Y111.492 E13.44036
G1 X90.34 Y110.847 E13.5075
G1 X90.213 Y110.523 E13.54039
G1 X89.961 Y109.771 E13.61534
G1 X89.735 Y108.659 E13.72257
G1 X89.69 Y108.311 E13.75573
G1 X89.628 Y107.52 E13.83071
G1 X89.646 Y106.727 E13.90567
G1 X89.734 Y105.947 E13.97984
G1 X89.875 Y105.166 E14.05484
G1 X90.213 Y104.077 E14.16259
G1 X90.34 Y103.753 E14.19548
G1 X90.638 Y103.094 E14.26383
G1 X90.34 Y102.447 E14.33114
G1 X90.213 Y102.123 E14.36403
G1 X89.961 Y101.371 E14.43898
G1 X89.735 Y100.259 E14.54621
G1 X89.69 Y99.911 E14.57937
G1 X89.628 Y99.12 E14.65435
G1 X89.646 Y98.327 E14.7293
G1 X89.734 Y97.547 E14.80348
G1 X89.875 Y96.766 E14.87848
G1 X90.213 Y95.677 E14.98623
G1 X90.34 Y95.353 E15.01912
G1 X90.667 Y94.63 E15.09411
G1 X91.064 Y93.943 E15.16909
G1 X91.507 Y93.314 E15.24179
G1 X92.005 Y92.696 E15.31679
G1 X92.563 Y92.132 E15.39177
G0 F4500 X93.095 Y92.133
G1 F1800 X93.367 Y91.909 E15.42507
G1 X93.991 Y91.448 E15.49838
G1 X94.966 Y90.9 E15.60408
G1 X95.285 Y90.751 E15.63735
G1 X96.004 Y90.459 E15.71068
G1 X97.056 Y90.178 E15.81358
G1 X97.401 Y90.112 E15.84678
G1 X98.169 Y90.006 E15.92004
G1 X99.286 Y89.993 E16.0256
G1 X99.637 Y90.015 E16.05884
G1 X100.407 Y90.103 E16.13208
G1 X101.52 Y90.378 E16.24042
G1 X101.851 Y90.487 E16.27335
G1 X102.574 Y90.767 E16.34662
G1 X103.099 Y91.05 E16.40298
G1 X103.685 Y90.751 E16.46515
G1 X104.404 Y90.459 E16.53848
G1 X105.456 Y90.178 E16.64138
G1 X105.801 Y90.112 E16.67458
G1 X106.569 Y90.006 E16.74784
G1 X107.686 Y89.993 E16.8534
G1 X108.037 Y90.015 E16.88664
G1 X108.807 Y90.103 E16.95988
G1 X109.92 Y90.378 E17.06822
G1 X110.251 Y90.487 E17.10115
G1 X110.974 Y90.767 E17.17442
G1 X111.499 Y91.05 E17.23078
G1 X112.085 Y90.751 E17.29295
G1 X112.804 Y90.459 E17.36628
G1 X113.856 Y90.178 E17.46918
G1 X114.201 Y90.112 E17.50238
G1 X114.969 Y90.006 E17.57564
G1 X116.086 Y89.993 E17.68121
G1 X116.437 Y90.015 E17.71444
G1 X117.207 Y90.103 E17.78768
G1 X118.32 Y90.378 E17.89602
G1 X118.651 Y90.487 E17.92895
G1 X119.374 Y90.767 E18.00222
G1 X119.899 Y91.05 E18.05858
G1 X120.485 Y90.751 E18.12075
G1 X121.204 Y90.459 E18.19409
G1 X122.256 Y90.178 E18.29698
G1 X122.601 Y90.112 E18.33018
G1 X123.369 Y90.006 E18.40344
G1 X124.486 Y89.993 E18.50901
G1 X124.837 Y90.015 E18.54224
G1 X125.607 Y90.103 E18.61548
G1 X126.72 Y90.378 E18.72382
G1 X127.051 Y90.487 E18.75675
G1 X127.774 Y90.767 E18.83002
G1 X128.741 Y91.288 E18.93382
G1 X129.036 Y91.476 E18.96688
G1 X129.668 Y91.926 E19.0402
G1 X130.462 Y92.654 E19.14199
G1 X130.702 Y92.908 E19.17502
G1 X131.205 Y93.498 E19.24828
G1 X131.82 Y94.44 E19.35459
G1 X131.99 Y94.748 E19.38784
G1 X132.329 Y95.445 E19.46108
G1 X132.695 Y96.529 E19.5692
G1 X132.782 Y96.871 E19.60255
G1 X132.934 Y97.631 E19.67579
G1 X133.014 Y98.726 E19.77955
G1 X133.014 Y99.074 E19.81243
G1 X132.974 Y99.849 E19.88577
G1 X132.784 Y100.919 E19.98847
G1 X132.698 Y101.259 E20.02161
G1 X132.47 Y102 E20.09487
G1 X131.992 Y103.049 E20.20381
G1 X131.964 Y103.1 E20.20931
G1 X131.99 Y103.148 E20.21447
G1 X132.329 Y103.845 E20.28771
G1 X132.695 Y104.929 E20.39583
G1 X132.782 Y105.271 E20.42918
G1 X132.934 Y106.031 E20.50242
G1 X133.014 Y107.126 E20.60617
G1 X133.014 Y107.474 E20.63906
G1 X132.974 Y108.249 E20.71239
G1 X132.784 Y109.319 E20.81509
G1 X132.698 Y109.659 E20.84823
G1 X132.47 Y110.4 E20.9215
G1 X131.992 Y111.449 E21.03043
G1 X131.964 Y111.5 E21.03593
G1 X131.99 Y111.548 E21.04109
G1 X132.329 Y112.245 E21.11433
G1 X132.693 Y113.324 E21.22195
G1 X132.78 Y113.665 E21.2552
G1 X132.933 Y114.425 E21.32846
G1 X133.014 Y115.525 E21.43269
G1 X133.014 Y115.874 E21.46567
G1 X132.974 Y116.649 E21.53901
G1 X132.784 Y117.719 E21.64171
G1 X132.698 Y118.059 E21.67485
G1 X132.47 Y118.8 E21.74811
G1 X131.992 Y119.849 E21.85705
G1 X131.964 Y119.9 E21.86255
G1 X131.99 Y119.948 E21.86771
G1 X132.329 Y120.645 E21.94095
G1 X132.693 Y121.724 E22.04856
G1 X132.78 Y122.065 E22.08182
G1 X132.933 Y122.825 E22.15508
G1 X133.014 Y123.925 E22.25931
G1 X133.014 Y124.274 E22.29229
G1 X132.974 Y125.049 E22.36563
G1 X132.784 Y126.119 E22.46832
G1 X132.698 Y126.459 E22.50147
G1 X132.47 Y127.2 E22.57473
G1 X131.992 Y128.249 E22.68367
G1 X131.821 Y128.559 E22.71712
G1 X131.412 Y129.218 E22.79042
G1 X130.69 Y130.105 E22.8985
G1 X130.447 Y130.361 E22.93185
G1 X129.884 Y130.895 E23.00518
G1 X129.014 Y131.538 E23.10741
G1 X128.717 Y131.726 E23.14063
G1 X128.041 Y132.107 E23.21396
G1 X127.013 Y132.526 E23.31887
G1 X126.683 Y132.633 E23.35165
G1 X125.934 Y132.834 E23.42493
G1 X124.833 Y132.985 E23.52995
G1 X124.482 Y133.007 E23.56319
G1 X123.706 Y133.016 E23.63652
G1 X122.576 Y132.884 E23.74404
G1 X122.231 Y132.817 E23.77725
G1 X121.479 Y132.63 E23.85047
G1 X120.464 Y132.24 E23.95323
G1 X119.902 Y131.96 E24.01256
G1 X119.641 Y132.107 E24.04087
G1 X118.613 Y132.526 E24.14578
G1 X118.283 Y132.633 E24.17856
G1 X117.534 Y132.834 E24.25185
G1 X116.433 Y132.985 E24.35686
G1 X116.082 Y133.007 E24.3901
G1 X115.306 Y133.016 E24.46344
G1 X114.176 Y132.884 E24.57095
G1 X113.831 Y132.817 E24.60416
G1 X113.079 Y132.63 E24.67739
G1 X112.064 Y132.24 E24.78014
G1 X111.502 Y131.96 E24.83948
G1 X111.241 Y132.107 E24.86778
G1 X110.213 Y132.526 E24.97269
G1 X109.883 Y132.633 E25.00547
G1 X109.134 Y132.834 E25.07876
G1 X108.033 Y132.985 E25.18378
G1 X107.682 Y133.007 E25.21701
G1 X106.906 Y133.016 E25.29035
G1 X105.776 Y132.884 E25.39786
G1 X105.431 Y132.817 E25.43107
G1 X104.679 Y132.63 E25.5043
G1 X103.664 Y132.24 E25.60705
G1 X103.102 Y131.96 E25.66639
G1 X102.841 Y132.107 E25.6947
G1 X101.813 Y132.526 E25.7996
G1 X101.483 Y132.633 E25.83238
G1 X100.734 Y132.834 E25.90567
G1 X99.633 Y132.985 E26.01069
G1 X99.282 Y133.007 E26.04392
G1 X98.506 Y133.016 E26.11726
G1 X97.376 Y132.884 E26.22477
G1 X97.031 Y132.817 E26.25798
G1 X96.279 Y132.63 E26.33121
G1 X95.264 Y132.24 E26.43396
G1 X94.945 Y132.09 E26.46728
G1 X94.261 Y131.724 E26.54059
G1 X93.344 Y131.073 E26.64686
G1 X93.075 Y130.85 E26.67988
G1 X92.505 Y130.325 E26.75311
G1 X91.787 Y129.475 E26.85826
G1 X91.581 Y129.191 E26.89141
G1 X91.158 Y128.541 E26.9647
G1 X90.666 Y127.519 E27.07189
G1 X90.539 Y127.195 E27.10477
G1 X90.294 Y126.459 E27.17808
G1 X90.082 Y125.414 E27.27884
G1 X90.037 Y125.066 E27.312
G1 X89.977 Y124.293 E27.38527
G1 X90.036 Y123.141 E27.49428
G1 X90.081 Y122.791 E27.52762
G1 X90.22 Y122.028 E27.60091
G1 X90.536 Y121.012 E27.70146
G1 X90.663 Y120.687 E27.73444
G1 X90.982 Y119.98 E27.80773
G1 X91.038 Y119.89 E27.81775
G1 X90.663 Y119.113 E27.89928
G1 X90.536 Y118.788 E27.93226
G1 X90.291 Y118.052 E28.00556
G1 X90.082 Y117.014 E28.10562
G1 X90.037 Y116.666 E28.13878
G1 X89.977 Y115.893 E28.21205
G1 X90.036 Y114.741 E28.32105
G1 X90.081 Y114.391 E28.3544
G1 X90.22 Y113.628 E28.42769
G1 X90.536 Y112.612 E28.52824
G1 X90.663 Y112.287 E28.56121
G1 X90.982 Y111.58 E28.63451
G1 X91.037 Y111.49 E28.64448
G1 X90.666 Y110.719 E28.72534
G1 X90.539 Y110.395 E28.75822
G1 X90.294 Y109.659 E28.83153
G1 X90.082 Y108.614 E28.93229
G1 X90.037 Y108.266 E28.96545
G1 X89.977 Y107.493 E29.03872
G1 X90.036 Y106.341 E29.14772
G1 X90.081 Y105.991 E29.18107
G1 X90.22 Y105.228 E29.25436
G1 X90.539 Y104.205 E29.35563
G1 X90.666 Y103.881 E29.38851
G1 X90.986 Y103.174 E29.46185
G1 X91.037 Y103.091 E29.47106
G1 X90.666 Y102.319 E29.552
G1 X90.539 Y101.995 E29.58488
G1 X90.294 Y101.259 E29.65819
G1 X90.082 Y100.214 E29.75895
G1 X90.037 Y99.866 E29.79211
G1 X89.977 Y99.093 E29.86538
G1 X90.036 Y97.941 E29.97439
G1 X90.081 Y97.591 E30.00773
G1 X90.22 Y96.828 E30.08102
G1 X90.539 Y95.805 E30.18229
G1 X90.666 Y95.481 E30.21517
G1 X90.986 Y94.774 E30.28851
G1 X91.583 Y93.805 E30.39606
G1 X91.79 Y93.52 E30.42935
G1 X92.278 Y92.917 E30.50266
G1 X93.095 Y92.133 E30.60966
G0 F4500 X93.318 Y92.403
G1 F1800 X93.59 Y92.179 E30.64296
G1 X94.199 Y91.729 E30.71452
G1 X95.115 Y91.217 E30.81368
G1 X95.434 Y91.068 E30.84696
G1 X96.136 Y90.784 E30.91852
G1 X97.122 Y90.522 E31.01493
G1 X97.467 Y90.456 E31.04812
G1 X98.217 Y90.353 E31.11966
G1 X99.264 Y90.342 E31.21861
G1 X99.615 Y90.364 E31.25184
G1 X100.367 Y90.451 E31.32338
G1 X101.41 Y90.71 E31.42494
G1 X101.741 Y90.819 E31.45787
G1 X102.447 Y91.094 E31.52947
G1 X103.102 Y91.448 E31.59983
G1 X103.834 Y91.068 E31.67777
G1 X104.536 Y90.784 E31.74933
G1 X105.522 Y90.522 E31.84574
G1 X105.867 Y90.456 E31.87894
G1 X106.617 Y90.353 E31.95048
G1 X107.664 Y90.342 E32.04942
G1 X108.015 Y90.364 E32.08266
G1 X108.767 Y90.451 E32.15419
G1 X109.81 Y90.71 E32.25575
G1 X110.141 Y90.819 E32.28868
G1 X110.847 Y91.094 E32.36028
G1 X111.502 Y91.448 E32.43064
G1 X112.234 Y91.068 E32.50858
G1 X112.936 Y90.784 E32.58014
G1 X113.922 Y90.522 E32.67655
G1 X114.267 Y90.456 E32.70975
G1 X115.017 Y90.353 E32.78129
G1 X116.064 Y90.342 E32.88024
G1 X116.415 Y90.364 E32.91347
G1 X117.167 Y90.451 E32.98501
G1 X118.21 Y90.71 E33.08656
G1 X118.541 Y90.819 E33.1195
G1 X119.247 Y91.094 E33.1911
G1 X119.902 Y91.448 E33.26146
G1 X120.634 Y91.068 E33.3394
G1 X121.336 Y90.784 E33.41096
G1 X122.322 Y90.522 E33.50737
G1 X122.667 Y90.456 E33.54056
G1 X123.417 Y90.353 E33.6121
G1 X124.464 Y90.342 E33.71105
G1 X124.815 Y90.364 E33.74428
G1 X125.567 Y90.451 E33.81582
G1 X126.61 Y90.71 E33.91738
G1 X126.941 Y90.819 E33.95031
G1 X127.647 Y91.094 E34.02191
G1 X128.553 Y91.583 E34.1192
G1 X128.848 Y91.771 E34.15226
G1 X129.464 Y92.211 E34.2238
G1 X130.207 Y92.894 E34.31917
G1 X130.447 Y93.148 E34.35219
G1 X130.938 Y93.725 E34.42379
G1 X131.514 Y94.609 E34.52349
G1 X131.684 Y94.917 E34.55674
G1 X132.014 Y95.598 E34.62825
G1 X132.356 Y96.615 E34.72965
G1 X132.443 Y96.957 E34.76299
G1 X132.59 Y97.7 E34.83457
G1 X132.664 Y98.726 E34.93178
G1 X132.664 Y99.074 E34.96466
G1 X132.624 Y99.83 E35.03621
G1 X132.445 Y100.833 E35.13249
G1 X132.359 Y101.173 E35.16563
G1 X132.135 Y101.897 E35.23725
G1 X131.686 Y102.88 E35.33937
G1 X131.564 Y103.1 E35.36314
G1 X131.684 Y103.317 E35.38658
G1 X132.014 Y103.998 E35.45809
G1 X132.356 Y105.015 E35.55949
G1 X132.443 Y105.357 E35.59283
G1 X132.59 Y106.1 E35.66441
G1 X132.664 Y107.126 E35.76162
G1 X132.664 Y107.474 E35.7945
G1 X132.624 Y108.23 E35.86604
G1 X132.445 Y109.233 E35.96233
G1 X132.359 Y109.573 E35.99547
G1 X132.135 Y110.297 E36.06709
